X: 1
T: Keelman O'er the Land
C: Traditional, Arr. Gordon Mooney
N:
M: 6/8
L: 1/8
K: HP
\
|: {g}e (d/&quot;3&quot;c/B/)A {gef}e2 a | {ef}e (d/&quot;3&quot;c/B/)A {gef}e2 a | {fg}fdB
adB | {g}fdB {g}fga |
\
| {ef}ecA {g}ABc | {g}caf {g}ecA | {g}B/c/d/c/B {g}c/d/e/d/c | {g}f2 e
{g}fga :|
